build/assets/fonts/f600350d98a0611ab69a971109c6903c.svg

<svg preserveAspectRatio="xMinYMin" viewBox="0 0 132 133" xmlns="http://www.w3.org/2000/svg"><path d="M2.528 21.647C11.378 4.499 36.056-4.257 52.54 3.25c19.526 8.894 23.642 32.719 7.891 48.629-5.31 5.364-11.989 9.447-18.313 13.713-7.84 5.289-15 11.022-18.847 20.045-6.581 15.432-.969 34.055 13.116 43.105 1.236.794 2.512 1.527 3.91 2.374-8.094 1.022-20.646-3.737-27.562-10.345-14.01-13.386-16.931-34.668-6.418-51.196 4.171-6.557 10.058-12.015 14.314-18.528 3.181-4.868 6.455-10.454 7.113-16.024 1.227-10.388-9.335-17.654-20.179-14.963-1.427.354-2.812.88-5.037 1.587zm70.468 34.307c7.138-3.942 13.374-7.317 19.538-10.821 3.264-1.855 4.57-4.651 4.914-8.565.359-4.091 2.091-8.062 3.223-12.085l2.048-.163c1.259 2.329 2.995 4.53 3.664 7.019.995 3.698 2.91 5.724 6.494 7.291 11.446 5.002 16.941 14.284 17.927 26.572.322 4.015-1.395 6.236-5.143 6.252-4.429.018-9.392.491-13.194-1.256-12.58-5.779-24.518-13.04-39.471-14.244zM33.415 84.129c7.248-11.566 20.69-15.318 34.408-10.195 18.268 6.823 25.094 21.836 21.015 47.098 3.071.748 6.38 1.104 9.28 2.387 2.821 1.249 5.223 3.446 7.809 5.227l-.692 1.895-42.062 1.532c7.084-4.822 12.637-10.475 14.966-18.735 2.368-8.399.75-16.189-4.017-23.326-8.277-12.392-23.156-14.666-40.707-5.883zm36.292 22.266c-.05 10.475-8.174 18.4-18.826 18.362-10.565-.038-18.616-8.102-18.587-18.617.029-10.555 8.57-18.973 19.083-18.81 10.23.159 18.379 8.635 18.33 19.065zm-18.496 8.911c4.931-.121 9.155-4.536 9.028-9.434-.127-4.875-4.657-9.193-9.484-9.041-4.891.153-9.143 4.642-9.01 9.511.136 4.968 4.484 9.086 9.466 8.964zm4.171-51.126c13.538-3.33 26.477-.969 38.309 5.731 9.236 5.229 18.39 9.787 29.161 10.635 3.703.292 6.804 2.334 8.666 7.524-7.88-3.081-13.894.393-20.2 2.667-8.31 2.995-12.28 1.505-17.542-5.702C84.291 72.043 71.83 64.501 55.382 64.18z" fill="#F0820B" fill-rule="evenodd"/></svg>

<svg preserveAspectRatio="xMinYMin" viewBox="0 0 132 133" version="1.1" xmlns="http://www.w3.org/2000/svg" xmlns:xlink="http://www.w3.org/1999/xlink"><title>uc-browser</title><desc>Created with Sketch.</desc><g id="Page-1" stroke="none" stroke-width="1" fill="none" fill-rule="evenodd"><path d="M2.528,21.647 C11.378,4.499 36.056,-4.257 52.54,3.25 C72.066,12.144 76.182,35.969 60.431,51.879 C55.121,57.243 48.442,61.326 42.118,65.592 C34.278,70.881 27.118,76.614 23.271,85.637 C16.69,101.069 22.302,119.692 36.387,128.742 C37.623,129.536 38.899,130.269 40.297,131.116 C32.203,132.138 19.651,127.379 12.735,120.771 C-1.275,107.385 -4.196,86.103 6.317,69.575 C10.488,63.018 16.375,57.56 20.631,51.047 C23.812,46.179 27.086,40.593 27.744,35.023 C28.971,24.635 18.409,17.369 7.565,20.06 C6.138,20.414 4.753,20.94 2.528,21.647 Z M72.996,55.954 C80.134,52.012 86.37,48.637 92.534,45.133 C95.798,43.278 97.104,40.482 97.448,36.568 C97.807,32.477 99.539,28.506 100.671,24.483 C101.354,24.428 102.036,24.374 102.719,24.32 C103.978,26.649 105.714,28.85 106.383,31.339 C107.378,35.037 109.293,37.063 112.877,38.63 C124.323,43.632 129.818,52.914 130.804,65.202 C131.126,69.217 129.409,71.438 125.661,71.454 C121.232,71.472 116.269,71.945 112.467,70.198 C99.887,64.419 87.949,57.158 72.996,55.954 Z M33.415,84.129 C40.663,72.563 54.105,68.811 67.823,73.934 C86.091,80.757 92.917,95.77 88.838,121.032 C91.909,121.78 95.218,122.136 98.118,123.419 C100.939,124.668 103.341,126.865 105.927,128.646 C105.696,129.278 105.465,129.91 105.235,130.541 C91.214,131.052 77.194,131.562 63.173,132.073 C70.257,127.251 75.81,121.598 78.139,113.338 C80.507,104.939 78.889,97.149 74.122,90.012 C65.845,77.62 50.966,75.346 33.415,84.129 Z M69.707,106.395 C69.657,116.87 61.533,124.795 50.881,124.757 C40.316,124.719 32.265,116.655 32.294,106.14 C32.323,95.585 40.864,87.167 51.377,87.33 C61.607,87.489 69.756,95.965 69.707,106.395 Z M51.211,115.306 C56.142,115.185 60.366,110.77 60.239,105.872 C60.112,100.997 55.582,96.679 50.755,96.831 C45.864,96.984 41.612,101.473 41.745,106.342 C41.881,111.31 46.229,115.428 51.211,115.306 Z M55.382,64.18 C68.92,60.85 81.859,63.211 93.691,69.911 C102.927,75.14 112.081,79.698 122.852,80.546 C126.555,80.838 129.656,82.88 131.518,88.07 C123.638,84.989 117.624,88.463 111.318,90.737 C103.008,93.732 99.038,92.242 93.776,85.035 C84.291,72.043 71.83,64.501 55.382,64.18 Z" id="uc-browser" fill="#F0820B"/></g></svg>
